public/avatar/item0/54.svg

<svg xmlns:xlink="http://www.w3.org/1999/xlink" height="58.65" width="49.15" xmlns="http://www.w3.org/2000/svg"><use height="13.2" transform="translate(9.15 14.9)" width="29.5" xlink:href="#a"/><defs><g id="a" fill-rule="evenodd"><path d="m13.4 3.05.05-.25v.45q1.1 1.1 1.1 2.75l-.3 1.6q-.4 1-1.3 1.35-1.2.4-2.85-.5l-1.75.85Q4.4 10.65-.6 7.95-5.45 10.9-9.85 9.6l-.3-.1-4 .1-.5-.65-.3-1.4q0-1 .65-2.2l-.15-.6q-.5-1.05-.5-2l.15-.9q0-3.45 5.05-4.3L-.6-3.2l9.35.9q5.1 1.1 4.65 4.5v.85m-1.95 1.1V1.9q.1-1.55-3.1-2.25L-.6-1.2l-8.8.7q-2.1.4-3 1.45L-12.85 2v.3l.25 1.65.1.3.25 1.5-.2.3q-.8 1.2-.45 1.9l.1.15q.6.5 1.95-.5l.5-.3 1.1.4Q-5.5 8.8-1.2 6l.55-.35.5.3 2.65 1.2 5.2.3 1.9-.95.5-.35.7.4q1.1.65 1.45.55l.15-.3q.55-1.55-.55-2.3l-.4-.35" fill="#a7346d" transform="translate(14.95 3.2)"/><path d="m-13.45 8.85-.3-.4q2.25-1.25 5.1-4.15.8 1.6-.95 3.5-2.3 2.5-3.85 1.05" fill="#a03f9e" transform="translate(14.95 3.2)"/><path d="M-12.8 4.9q2.25-2.5 3.85-1.05l.3.45q-2.85 2.9-5.1 4.15-.85-1.55.95-3.55m26.15 2.25q-3.15-2.35-5.1-3.4.9-1.95 3.7-.35 2.3 1.25 1.4 3.75" fill="#bc6fba" transform="translate(14.95 3.2)"/><path d="M8.25 3.75q1.95 1.05 5.1 3.4v.05q-.65 1.6-3.05.25Q7.4 5.8 8.2 3.8l.05-.05" fill="#a03f9e" transform="translate(14.95 3.2)"/><path d="m-.65-.5 8.85.2q4.35.4 4.15 2.75 1.1 4.1-4.3 5.9L2.2 8.1-.65 6.8q-4.6 3.1-8.9 1.85-3.45-1.05-3.9-3.7l.3-2.45q-.15-.6.2-1.25.75-1.3 3.45-1.55 4.35-.35 8.85-.2" fill="#a7346d" transform="translate(14.95 3.2)"/><path d="m-.6-2.2 9.15.85q4.25.95 3.85 3.4.8 3.4-4.6 5.15-2.45.8-5.75-.7L-.7 4.8q-4.45 3.55-8.75 2.3-3.45-1-4.3-3.15l-.1-1.95q0-.7.55-1.45 1.05-1.55 3.75-2L-.6-2.2" fill="#f0abc5" transform="translate(14.95 3.2)"/><path d="m-10.8-.15 9.65-.9 6.9.1q1.2 2.05-2.45 4-3.7 2-4.1.8-9.2 2.55-10.55-.4-.45-.95 0-2.3l.55-1.3" fill="#f24370" transform="translate(14.95 3.2)"/><path d="M10.1.7Q12.15 5 5.65 6.3q1.9-3.9.1-7.25Q9.45-.7 10.1.7" fill="#d43d6f" transform="translate(14.95 3.2)"/><path d="m-.75-.3 4.9.1q5 .25 5.4 1.3.65 1.55-.55 3.1-1.2 1.55-3.55 2.05-1.8.4-3.55-.6Q0 4.55-.7 4.55q-.6.05-2.85 1.1-1.9.9-3.75.5-2.35-.5-3.35-2-1-1.45-.35-3.05.4-1.05 5.35-1.3l4.9-.1" fill="#fee4e1" transform="translate(14.95 3.2)"/><path d="M-2.4.45q-2.65 2.6-3.95 5.45h-.2q-2.05-.4-3-1.7-.9-1.25-.3-2.6Q-9.4.45-2.4.45" fill="#ffecea" transform="translate(14.95 3.2)"/><path d="m-4.1 5.95-2.25-.05Q-5.05 3.05-2.4.45h3.75q-3.3 2.85-5.45 5.5" fill="#fff5f4" transform="translate(14.95 3.2)"/><path d="m1.35-.15 4.7.35Q-.9 3.3-3.7 5.85l-.4.1q2.3-3.1 5.45-6.1" fill="#fea2a8" transform="translate(14.95 3.2)"/><path d="m6.25.35.9.15Q6.05 4.2 3.7 5.75q-.95 0-2.2-.55-1.25-.5-1.95-.5l-3.05.8Q-.85 3.25 6.25.35" fill="#fdc3c7" transform="translate(14.95 3.2)"/><path d="M9.1 1.3q.55 1.35-.45 2.65-1.1 1.3-3.2 1.75l-1.4.1Q6.4 4.25 7.5.55q1.4.25 1.6.75" fill="#fea2a8" transform="translate(14.95 3.2)"/><path d="m-2.7.65-7 .55-.3-.7 7.3-.7v.85" fill="#fff" transform="translate(14.95 3.2)"/><path d="m-9.9 6.2.4-.7 1.55.6 3.2.1.25.35-3.55.15-1.85-.5M-12-.35l2-.8 4.6-.8v.85l-6.4 1.05-.2-.3m15.55 6.7 4.15-.6.35.75-2.95.35-1.65-.2.1-.3" fill="#f6cddd" transform="translate(14.95 3.2)"/><path d="M-3.35 2.3q0 1.05-1.65 1.05T-6.65 2.3q0-1.1 1.65-1.1t1.65 1.1m-1.7 2q0 .6-.95.6t-.95-.6q0-.6.95-.6t.95.6" fill="#fff" transform="translate(14.95 3.2)"/><path d="M-4.15 3.6-2 .15l.65.4L-3.5 4l-.65-.4m-2.7 2.05L-3.45.5l.65.4-3.45 5.2-.6-.45" fill="#fff" transform="translate(14.95 3.2)"/></g></defs></svg>

<?xml version="1.0" encoding="UTF-8" standalone="no"?>
<svg xmlns:xlink="http://www.w3.org/1999/xlink" height="58.65px" width="49.15px" xmlns="http://www.w3.org/2000/svg">
  <g transform="matrix(1.0, 0.0, 0.0, 1.0, 24.1, 18.1)">
    <use height="13.2" transform="matrix(1.0, 0.0, 0.0, 1.0, -14.95, -3.2)" width="29.5" xlink:href="#shape0"/>
  </g>
  <defs>
    <g id="shape0" transform="matrix(1.0, 0.0, 0.0, 1.0, 14.95, 3.2)">
      <path d="M13.4 3.05 L13.45 2.8 13.45 3.25 Q14.55 4.35 14.55 6.0 L14.25 7.6 Q13.85 8.6 12.95 8.95 11.75 9.35 10.1 8.45 L8.35 9.3 Q4.4 10.65 -0.6 7.95 -5.45 10.9 -9.85 9.6 L-10.15 9.5 -14.15 9.6 -14.65 8.95 -14.95 7.55 Q-14.95 6.55 -14.3 5.35 L-14.45 4.75 Q-14.95 3.7 -14.95 2.75 L-14.8 1.85 Q-14.8 -1.6 -9.75 -2.45 L-0.6 -3.2 8.75 -2.3 Q13.85 -1.2 13.4 2.2 L13.4 3.05 M11.45 4.15 L11.45 1.9 Q11.55 0.35 8.35 -0.35 L-0.6 -1.2 -9.4 -0.5 Q-11.5 -0.1 -12.4 0.95 L-12.85 2.0 -12.85 2.3 -12.6 3.95 -12.5 4.25 -12.25 5.75 -12.45 6.05 Q-13.25 7.25 -12.9 7.95 L-12.8 8.1 Q-12.2 8.6 -10.85 7.6 L-10.35 7.3 -9.25 7.7 Q-5.5 8.8 -1.2 6.0 L-0.65 5.65 -0.15 5.95 2.5 7.15 7.7 7.45 9.6 6.5 10.1 6.15 10.8 6.55 Q11.9 7.2 12.25 7.1 L12.4 6.8 Q12.95 5.25 11.85 4.5 L11.45 4.15" fill="#a7346d" fill-rule="evenodd" stroke="none"/>
      <path d="M-13.45 8.85 L-13.75 8.45 Q-11.5 7.2 -8.65 4.3 -7.85 5.9 -9.6 7.8 -11.9 10.3 -13.45 8.85" fill="#a03f9e" fill-rule="evenodd" stroke="none"/>
      <path d="M-12.8 4.9 Q-10.55 2.4 -8.95 3.85 L-8.65 4.3 Q-11.5 7.2 -13.75 8.45 -14.6 6.9 -12.8 4.9" fill="#bc6fba" fill-rule="evenodd" stroke="none"/>
      <path d="M13.35 7.15 Q10.2 4.8 8.25 3.75 9.15 1.8 11.95 3.4 14.25 4.65 13.35 7.15" fill="#bc6fba" fill-rule="evenodd" stroke="none"/>
      <path d="M8.25 3.75 Q10.2 4.8 13.35 7.15 L13.35 7.2 Q12.7 8.8 10.3 7.45 7.4 5.8 8.2 3.8 L8.25 3.75" fill="#a03f9e" fill-rule="evenodd" stroke="none"/>
      <path d="M-0.65 -0.5 L8.2 -0.3 Q12.55 0.1 12.35 2.45 13.45 6.55 8.05 8.35 L2.2 8.1 -0.65 6.8 Q-5.25 9.9 -9.55 8.65 -13.0 7.6 -13.45 4.95 L-13.15 2.5 Q-13.3 1.9 -12.95 1.25 -12.2 -0.05 -9.5 -0.3 -5.15 -0.65 -0.65 -0.5" fill="#a7346d" fill-rule="evenodd" stroke="none"/>
      <path d="M-0.6 -2.2 L8.55 -1.35 Q12.8 -0.4 12.4 2.05 13.2 5.45 7.8 7.2 5.35 8.0 2.05 6.5 L-0.7 4.8 Q-5.15 8.35 -9.45 7.1 -12.9 6.1 -13.75 3.95 L-13.85 2.0 Q-13.85 1.3 -13.3 0.55 -12.25 -1.0 -9.55 -1.45 L-0.6 -2.2" fill="#f0abc5" fill-rule="evenodd" stroke="none"/>
      <path d="M-10.8 -0.15 L-1.15 -1.05 5.75 -0.95 Q6.95 1.1 3.3 3.05 -0.4 5.05 -0.8 3.85 -10.0 6.4 -11.35 3.45 -11.8 2.5 -11.35 1.15 L-10.8 -0.15" fill="#f24370" fill-rule="evenodd" stroke="none"/>
      <path d="M10.1 0.7 Q12.15 5.0 5.65 6.3 7.55 2.4 5.75 -0.95 9.45 -0.7 10.1 0.7" fill="#d43d6f" fill-rule="evenodd" stroke="none"/>
      <path d="M-0.75 -0.3 L4.15 -0.2 Q9.15 0.05 9.55 1.1 10.2 2.65 9.0 4.2 7.8 5.75 5.45 6.25 3.65 6.65 1.9 5.65 0.0 4.55 -0.7 4.55 -1.3 4.6 -3.55 5.65 -5.45 6.55 -7.3 6.15 -9.65 5.65 -10.65 4.15 -11.65 2.7 -11.0 1.1 -10.6 0.05 -5.65 -0.2 L-0.75 -0.3" fill="#fee4e1" fill-rule="evenodd" stroke="none"/>
      <path d="M-2.4 0.45 Q-5.05 3.05 -6.35 5.9 L-6.55 5.9 Q-8.6 5.5 -9.55 4.2 -10.45 2.95 -9.85 1.6 -9.4 0.45 -2.4 0.45" fill="#ffecea" fill-rule="evenodd" stroke="none"/>
      <path d="M-4.1 5.95 L-6.35 5.9 Q-5.05 3.05 -2.4 0.45 L1.35 0.45 Q-1.95 3.3 -4.1 5.95" fill="#fff5f4" fill-rule="evenodd" stroke="none"/>
      <path d="M1.35 -0.15 L6.05 0.2 Q-0.9 3.3 -3.7 5.85 L-4.1 5.95 Q-1.8 2.85 1.35 -0.15" fill="#fea2a8" fill-rule="evenodd" stroke="none"/>
      <path d="M6.25 0.35 L7.15 0.5 Q6.05 4.2 3.7 5.75 2.75 5.75 1.5 5.2 0.25 4.7 -0.45 4.7 L-3.5 5.5 Q-0.85 3.25 6.25 0.35" fill="#fdc3c7" fill-rule="evenodd" stroke="none"/>
      <path d="M9.1 1.3 Q9.65 2.65 8.65 3.95 7.55 5.25 5.45 5.7 L4.05 5.8 Q6.4 4.25 7.5 0.55 8.9 0.8 9.1 1.3" fill="#fea2a8" fill-rule="evenodd" stroke="none"/>
      <path d="M-2.7 0.65 L-9.7 1.2 -10.0 0.5 -2.7 -0.2 -2.7 0.65" fill="#ffffff" fill-rule="evenodd" stroke="none"/>
      <path d="M-9.9 6.2 L-9.5 5.5 -7.95 6.1 -4.75 6.2 -4.5 6.55 -8.05 6.7 -9.9 6.2" fill="#f6cddd" fill-rule="evenodd" stroke="none"/>
      <path d="M-12.0 -0.35 L-10.0 -1.15 -5.4 -1.95 -5.4 -1.1 -11.8 -0.05 -12.0 -0.35" fill="#f6cddd" fill-rule="evenodd" stroke="none"/>
      <path d="M3.55 6.35 L7.7 5.75 8.05 6.5 5.1 6.85 3.45 6.65 3.55 6.35" fill="#f6cddd" fill-rule="evenodd" stroke="none"/>
      <path d="M-3.35 2.3 Q-3.35 3.35 -5.0 3.35 -6.65 3.35 -6.65 2.3 -6.65 1.2 -5.0 1.2 -3.35 1.2 -3.35 2.3" fill="#ffffff" fill-rule="evenodd" stroke="none"/>
      <path d="M-5.05 4.3 Q-5.05 4.9 -6.0 4.9 -6.95 4.9 -6.95 4.3 -6.95 3.7 -6.0 3.7 -5.05 3.7 -5.05 4.3" fill="#ffffff" fill-rule="evenodd" stroke="none"/>
      <path d="M-4.15 3.6 L-2.0 0.15 -1.35 0.55 -3.5 4.0 -4.15 3.6" fill="#ffffff" fill-rule="evenodd" stroke="none"/>
      <path d="M-6.85 5.65 L-3.45 0.5 -2.8 0.9 -6.25 6.1 -6.85 5.65" fill="#ffffff" fill-rule="evenodd" stroke="none"/>
    </g>
  </defs>
</svg>
